web/packages/design/src/ResourceIcon/assets/go1-dark.svg

<svg width="72" height="72" viewBox="0 0 72 72" fill="none" xmlns="http://www.w3.org/2000/svg">
<g clip-path="url(#clip0_15941_7440)">
<path d="M52.3571 42.8945H71.9996V38.6375H64.6106V22.469C64.6106 19.787 62.8556 18.0005 60.1691 18.0005V22.2125H52.4381V26.4695H56.0696C58.1171 26.4695 59.6156 25.4435 60.1691 23.828V38.633H52.3571V42.8945ZM40.9946 38.8985H35.9096C35.3245 38.9038 34.744 38.7935 34.2016 38.5738C33.6593 38.3541 33.1657 38.0294 32.7492 37.6183C32.3327 37.2073 32.0015 36.718 31.7747 36.1785C31.5479 35.6391 31.43 35.0602 31.4276 34.475V30.65C31.4276 28.2245 33.3941 26.2265 35.9141 26.2265H40.9991C41.587 26.217 42.1709 26.324 42.7171 26.5414C43.2633 26.7588 43.7611 27.0823 44.1816 27.4932C44.6021 27.9041 44.937 28.3942 45.167 28.9353C45.397 29.4763 45.5175 30.0576 45.5216 30.6455V34.475C45.5175 35.0635 45.3969 35.6453 45.1667 36.1869C44.9364 36.7285 44.6012 37.2192 44.1803 37.6304C43.7593 38.0417 43.2611 38.3656 42.7143 38.5832C42.1675 38.8009 41.583 38.908 40.9946 38.8985ZM26.8196 32.549C26.8196 38.9795 31.5176 43.3175 38.0111 43.3175H38.9111C45.4001 43.3175 50.1386 38.9795 50.1386 32.549C50.1386 26.1185 45.3911 21.7895 38.8976 21.7895H38.0021C31.5176 21.7895 26.8196 26.1275 26.8196 32.549ZM15.9701 55.319H8.15812C6.06112 55.319 4.56712 54.041 4.56712 52.2905V51.9485C4.56712 50.162 6.06112 48.8435 8.15812 48.8435H15.9746C18.0671 48.8435 19.6016 50.162 19.6016 51.9485V52.2905C19.6016 54.041 18.0716 55.3145 15.9746 55.3145L15.9701 55.319ZM14.5166 37.364H9.52162C7.09162 37.364 5.12062 35.5325 5.12062 33.152V30.5105C5.1229 29.9378 5.23903 29.3713 5.46224 28.8439C5.68546 28.3165 6.0113 27.8388 6.42083 27.4385C6.83035 27.0382 7.31538 26.7233 7.84771 26.5121C8.38004 26.301 8.94904 26.1977 9.52162 26.2085H14.5166C16.9511 26.2085 18.9176 28.0805 18.9176 30.5105V33.1025C18.9176 35.5325 16.9511 37.3595 14.5211 37.3595L14.5166 37.364ZM24.2051 51.998C24.2051 47.3585 21.0011 44.636 14.3456 44.636H5.97562C4.94512 44.636 4.31062 43.9925 4.31062 43.187C4.31062 42.332 4.95412 41.702 5.97562 41.702H12.2981C18.8321 41.702 23.5301 37.571 23.5301 31.532V22.127C21.6941 22.127 20.1101 23.2745 19.4261 24.854C17.7206 22.9325 15.1106 21.7895 11.7851 21.7895H11.0966C5.20612 21.7895 0.508117 25.7855 0.508117 31.703C0.508117 34.727 1.75012 37.0175 3.79312 38.5565C1.61962 39.1865 0.0761172 40.937 0.0761172 43.1915C0.0761172 45.275 1.35862 46.9355 3.28462 47.66C1.23712 48.803 -0.00488281 50.594 -0.00488281 53.024C-0.00488281 57.11 4.00912 59.7425 11.8661 59.7425H12.3386C20.1956 59.7425 24.2051 56.975 24.2051 51.998Z" fill="#D4FF26"/>
</g>
<defs>
<clipPath id="clip0_15941_7440">
<rect width="72" height="72" fill="white" transform="translate(0 0.000488281)"/>
</clipPath>
</defs>
</svg>

<svg xmlns="http://www.w3.org/2000/svg" width="72" height="72" fill="none" viewBox="0 0 72 72"><g clip-path="url(#a)"><path fill="#d4ff26" d="M52.357 42.895H72v-4.257h-7.39V22.469c0-2.682-1.754-4.469-4.44-4.469v4.212h-7.732v4.258h3.632c2.047 0 3.546-1.026 4.1-2.642v14.805h-7.813zm-11.362-3.997H35.91a4.44 4.44 0 0 1-4.482-4.423V30.65c0-2.425 1.966-4.423 4.486-4.423H41a4.45 4.45 0 0 1 4.523 4.418v3.83a4.456 4.456 0 0 1-4.527 4.423M26.82 32.55c0 6.43 4.698 10.769 11.191 10.769h.9c6.49 0 11.228-4.338 11.228-10.769 0-6.43-4.748-10.76-11.241-10.76h-.896c-6.484 0-11.182 4.339-11.182 10.76M15.97 55.32H8.158c-2.097 0-3.59-1.278-3.59-3.029v-.341c0-1.787 1.493-3.105 3.59-3.105h7.817c2.092 0 3.627 1.318 3.627 3.105v.342c0 1.75-1.53 3.024-3.627 3.024zm-1.453-17.955H9.522c-2.43 0-4.401-1.831-4.401-4.212V30.51a4.32 4.32 0 0 1 4.4-4.302h4.996c2.434 0 4.4 1.873 4.4 4.303v2.592c0 2.43-1.966 4.256-4.396 4.256zm9.688 14.634c0-4.64-3.204-7.362-9.86-7.362h-8.37c-1.03 0-1.664-.644-1.664-1.449 0-.855.643-1.485 1.665-1.485h6.322c6.534 0 11.232-4.131 11.232-10.17v-9.405c-1.836 0-3.42 1.148-4.104 2.727-1.705-1.921-4.315-3.064-7.64-3.064h-.69c-5.89 0-10.588 3.996-10.588 9.913 0 3.024 1.242 5.314 3.285 6.854-2.173.63-3.717 2.38-3.717 4.634 0 2.084 1.283 3.744 3.209 4.469-2.048 1.143-3.29 2.934-3.29 5.364 0 4.086 4.014 6.718 11.871 6.718h.473c7.857 0 11.866-2.767 11.866-7.744"/></g><defs><clipPath id="a"><path fill="#fff" d="M0 0h72v72H0z"/></clipPath></defs></svg>
